flaticon/music/violin-1.svg

<svg xmlns="http://www.w3.org/2000/svg" width="32" height="32" viewBox="0 0 24 24">
    <path d="M 24 23.304688 L 15.730469 15.035156 L 15.773438 14.980469 C 16.992188 13.414062 17.09375 11.238281 16.0625 9.566406 L 20.113281 5.515625 L 20.414062 5.820312 C 20.566406 5.972656 20.769531 6.046875 20.96875 6.046875 C 21.167969 6.046875 21.367188 5.972656 21.519531 5.820312 L 21.554688 5.785156 L 22.125 6.355469 L 22.695312 5.785156 L 22.125 5.214844 L 22.695312 4.644531 L 23.265625 5.214844 L 23.835938 4.644531 L 23.148438 3.957031 C 23.433594 3.238281 23.285156 2.382812 22.703125 1.804688 L 22.113281 1.214844 C 21.53125 0.632812 20.679688 0.484375 19.960938 0.769531 L 19.273438 0.0820312 L 18.703125 0.652344 L 19.273438 1.222656 L 18.703125 1.792969 L 18.132812 1.222656 L 17.5625 1.792969 L 18.132812 2.363281 L 18.097656 2.398438 C 17.792969 2.703125 17.792969 3.199219 18.097656 3.503906 L 18.402344 3.804688 L 14.375 7.832031 C 12.683594 6.710938 10.453125 6.777344 8.824219 8.046875 L 8.777344 8.082031 L 2.832031 2.136719 L 2.261719 2.707031 L 2.878906 3.324219 C 2.664062 3.652344 2.546875 4.035156 2.546875 4.4375 C 2.546875 4.976562 2.753906 5.480469 3.140625 5.867188 L 7.210938 9.835938 C 7.492188 10.578125 7.191406 11.59375 6.460938 12.324219 C 5.558594 13.230469 4.285156 13.453125 3.5625 12.835938 L 3.304688 12.613281 L 1.835938 13.828125 C 0.757812 14.664062 0.09375 15.925781 0.0078125 17.285156 C -0.0742188 18.613281 0.410156 19.917969 1.332031 20.875 C 0.960938 21.246094 0.890625 21.796875 1.101562 22.246094 L 0.117188 23.230469 C -0.0390625 23.386719 -0.0390625 23.640625 0.117188 23.800781 C 0.195312 23.878906 0.300781 23.917969 0.402344 23.917969 C 0.507812 23.917969 0.609375 23.878906 0.6875 23.800781 L 1.671875 22.816406 C 1.832031 22.894531 2.007812 22.9375 2.1875 22.9375 C 2.511719 22.9375 2.816406 22.8125 3.042969 22.585938 C 3.929688 23.4375 5.113281 23.917969 6.339844 23.917969 C 6.4375 23.917969 6.535156 23.914062 6.632812 23.910156 C 7.992188 23.824219 9.253906 23.15625 10.085938 22.085938 L 11.28125 20.59375 L 11.070312 20.34375 C 10.46875 19.617188 10.699219 18.351562 11.59375 17.457031 C 12.296875 16.753906 13.253906 16.449219 13.996094 16.679688 C 14.125 16.820312 14.304688 17.007812 14.582031 17.28125 L 18.238281 20.964844 C 18.621094 21.347656 19.125 21.554688 19.664062 21.554688 C 20.066406 21.554688 20.449219 21.4375 20.777344 21.222656 L 23.429688 23.875 Z M 18.667969 2.96875 L 19.851562 1.785156 C 19.894531 1.742188 19.941406 1.707031 19.988281 1.671875 C 20.019531 1.652344 20.050781 1.628906 20.089844 1.605469 L 20.101562 1.597656 C 20.285156 1.492188 20.492188 1.433594 20.699219 1.433594 C 21.003906 1.433594 21.3125 1.550781 21.546875 1.78125 L 22.132812 2.371094 C 22.523438 2.761719 22.582031 3.351562 22.320312 3.808594 L 22.308594 3.828125 C 22.289062 3.867188 22.265625 3.898438 22.246094 3.929688 C 22.210938 3.976562 22.175781 4.023438 22.132812 4.0625 L 20.96875 5.230469 L 20.679688 4.949219 L 20.683594 4.945312 L 18.972656 3.234375 L 18.957031 3.25 Z M 19.542969 4.945312 L 12.429688 12.058594 L 11.859375 11.488281 L 18.972656 4.375 Z M 3.351562 4.4375 C 3.351562 4.253906 3.394531 4.074219 3.46875 3.914062 L 8.15625 8.601562 L 7.875 8.832031 L 7.585938 9.070312 L 3.707031 5.292969 C 3.476562 5.0625 3.351562 4.761719 3.351562 4.4375 Z M 1.902344 22.015625 C 1.746094 21.855469 1.746094 21.601562 1.902344 21.445312 L 2.890625 20.457031 L 3.460938 21.027344 L 2.472656 22.015625 C 2.324219 22.167969 2.058594 22.167969 1.902344 22.015625 Z M 11.023438 16.886719 C 9.933594 17.972656 9.632812 19.53125 10.257812 20.582031 L 9.453125 21.585938 C 8.757812 22.480469 7.714844 23.03125 6.582031 23.101562 C 5.484375 23.171875 4.40625 22.777344 3.609375 22.019531 L 4.601562 21.027344 L 2.890625 19.316406 L 1.898438 20.308594 C 1.140625 19.511719 0.746094 18.433594 0.816406 17.335938 C 0.882812 16.203125 1.4375 15.160156 2.339844 14.457031 L 3.316406 13.648438 C 4.371094 14.289062 5.933594 13.992188 7.03125 12.894531 C 7.9375 11.988281 8.320312 10.761719 8.035156 9.746094 L 8.632812 9.25 L 9.332031 8.675781 C 10.632812 7.664062 12.40625 7.578125 13.789062 8.414062 L 10.71875 11.488281 L 12.429688 13.199219 L 15.472656 10.152344 C 16.226562 11.515625 16.109375 13.234375 15.144531 14.476562 L 14.042969 15.851562 C 13.046875 15.632812 11.890625 16.019531 11.023438 16.886719 Z M 18.808594 20.394531 C 17.824219 19.40625 15.488281 17.054688 14.730469 16.289062 L 14.859375 16.125 L 15.222656 15.667969 L 20.1875 20.632812 C 19.742188 20.84375 19.167969 20.753906 18.808594 20.394531 Z M 18.808594 20.394531"/>
    <path d="M7.699219 14.75C7.859375 14.910156 8.113281 14.910156 8.269531 14.75 8.429688 14.59375 8.429688 14.339844 8.269531 14.179688 7.8125 13.722656 7.015625 13.726562 6.5625 14.179688L4.851562 15.890625C4.691406 16.050781 4.4375 16.050781 4.28125 15.890625 4.121094 15.734375 3.867188 15.734375 3.710938 15.890625 3.550781 16.050781 3.550781 16.304688 3.710938 16.460938 3.945312 16.699219 4.253906 16.816406 4.566406 16.816406 4.875 16.816406 5.183594 16.699219 5.421875 16.460938L7.132812 14.75C7.28125 14.597656 7.546875 14.601562 7.699219 14.75zM9.125 15.605469C8.96875 15.765625 8.96875 16.019531 9.125 16.175781 9.285156 16.335938 9.285156 16.589844 9.125 16.746094L7.414062 18.457031C7.1875 18.6875 7.0625 18.992188 7.0625 19.3125 7.0625 19.636719 7.1875 19.941406 7.414062 20.167969 7.496094 20.246094 7.597656 20.285156 7.699219 20.285156 7.804688 20.285156 7.90625 20.246094 7.988281 20.167969 8.144531 20.011719 8.144531 19.753906 7.984375 19.597656 7.910156 19.523438 7.867188 19.421875 7.867188 19.3125 7.867188 19.207031 7.910156 19.105469 7.984375 19.027344L9.695312 17.316406C10.167969 16.847656 10.167969 16.078125 9.695312 15.605469 9.539062 15.449219 9.285156 15.449219 9.125 15.605469zM9.125 15.605469"/>
</svg>

<svg xmlns="http://www.w3.org/2000/svg" width="32" height="32" viewBox="0 0 24 24">
    <path d="M24 23.305l-8.27-8.27.043-.055a4.773 4.773 0 0 0 .29-5.414l4.05-4.05.301.304a.783.783 0 0 0 .555.227c.199 0 .398-.074.55-.227l.036-.035.57.57.57-.57-.57-.57.57-.57.57.57.57-.57-.687-.688a1.999 1.999 0 0 0-.445-2.152l-.59-.59A2 2 0 0 0 19.961.77l-.688-.688-.57.57.57.57-.57.571-.57-.57-.57.57.57.57-.035.035a.783.783 0 0 0 0 1.106l.304.3-4.027 4.028a4.75 4.75 0 0 0-5.55.215l-.048.035-5.945-5.945-.57.57.617.617a2.024 2.024 0 0 0 .262 2.543l4.07 3.969c.281.742-.02 1.758-.75 2.488-.902.906-2.176 1.13-2.899.512l-.257-.223-1.47 1.215a4.755 4.755 0 0 0-1.827 3.457 4.76 4.76 0 0 0 1.324 3.59 1.208 1.208 0 0 0-.23 1.371l-.985.984a.406.406 0 0 0 0 .57.405.405 0 0 0 .57 0l.985-.984c.16.079.336.122.516.122.324 0 .628-.125.855-.352a4.769 4.769 0 0 0 3.297 1.332c.098 0 .195-.004.293-.008a4.762 4.762 0 0 0 3.453-1.824l1.195-1.492-.21-.25c-.602-.727-.372-1.992.523-2.887.703-.703 1.66-1.008 2.402-.777.129.14.309.328.586.601l3.656 3.684a2.024 2.024 0 0 0 2.54.258l2.652 2.652zM18.668 2.969l1.184-1.184c.043-.043.09-.078.136-.113.032-.02.063-.043.102-.067l.012-.007c.183-.106.39-.164.597-.164.305 0 .613.117.848.347l.586.59c.39.39.449.98.187 1.438l-.011.02c-.02.038-.043.07-.063.1-.035.048-.07.094-.113.134L20.969 5.23l-.29-.28.005-.005-1.711-1.71-.016.015zm.875 1.976L12.43 12.06l-.57-.57 7.113-7.114zM3.352 4.437c0-.183.043-.363.117-.523l4.687 4.688-.281.23-.29.238-3.878-3.777a1.196 1.196 0 0 1-.355-.856zm-1.45 17.579a.406.406 0 0 1 0-.57l.989-.989.57.57-.988.989a.413.413 0 0 1-.57 0zm9.121-5.13c-1.09 1.087-1.39 2.645-.765 3.696l-.805 1.004a3.951 3.951 0 0 1-5.844.434l.993-.993-1.711-1.71-.993.992a3.951 3.951 0 0 1-1.082-2.973 3.939 3.939 0 0 1 1.524-2.879l.976-.809c1.055.641 2.618.344 3.715-.753.907-.907 1.29-2.133 1.004-3.149l.598-.496.699-.574a3.94 3.94 0 0 1 4.457-.262l-3.07 3.074 1.71 1.711 3.044-3.047a3.961 3.961 0 0 1-.328 4.325l-1.102 1.375c-.996-.22-2.152.168-3.02 1.035zm7.786 3.509c-.985-.989-3.32-3.34-4.079-4.106l.13-.164.363-.457 4.964 4.965a1.24 1.24 0 0 1-1.378-.238zm0 0"/>
    <path d="M7.7 14.75c.16.16.413.16.57 0a.399.399 0 0 0 0-.57c-.457-.457-1.254-.453-1.707 0l-1.711 1.71a.399.399 0 0 1-.57 0 .406.406 0 0 0-.571 0 .399.399 0 0 0 0 .57c.234.24.543.356.855.356.309 0 .618-.117.856-.355l1.71-1.711a.412.412 0 0 1 .567 0zm0 0M9.125 15.605a.406.406 0 0 0 0 .57c.16.16.16.415 0 .571l-1.71 1.711a1.216 1.216 0 0 0 0 1.711.412.412 0 0 0 .573 0 .402.402 0 0 0-.004-.57.402.402 0 0 1-.117-.285c0-.106.043-.208.117-.286l1.711-1.71a1.21 1.21 0 0 0 0-1.712.406.406 0 0 0-.57 0zm0 0"/>
</svg>
